packages/foundations/assets/icons/functional/images/business & payment/shopping_cart_12.svg

<svg width="12" height="12" viewBox="0 0 12 12" fill="none" xmlns="http://www.w3.org/2000/svg">
<g clip-path="url(#clip0_231_136)">
<path fill-rule="evenodd" clip-rule="evenodd" d="M4.50034 10.8C4.91334 10.8 5.25034 10.462 5.25034 10.05C5.24981 9.85126 5.17063 9.6608 5.03009 9.52027C4.88955 9.37973 4.69909 9.30054 4.50034 9.30001C4.40148 9.29867 4.30335 9.31715 4.21175 9.35436C4.12014 9.39158 4.03693 9.44677 3.96701 9.51668C3.8971 9.5866 3.84191 9.66981 3.80469 9.76142C3.76748 9.85302 3.749 9.95115 3.75034 10.05C3.75034 10.462 4.06934 10.8 4.50034 10.8ZM8.55034 10.8C8.96334 10.8 9.30034 10.462 9.30034 10.05C9.29981 9.85126 9.22063 9.6608 9.08009 9.52027C8.93955 9.37973 8.74909 9.30054 8.55034 9.30001C8.35159 9.30054 8.16113 9.37973 8.02059 9.52027C7.88006 9.6608 7.80087 9.85126 7.80034 10.05C7.80034 10.462 8.13834 10.8 8.55034 10.8ZM2.49434 1.20001C3.05634 1.20001 3.50634 1.59401 3.63734 2.15601L3.69434 2.40001H10.0503C10.4443 2.40001 10.7253 2.75601 10.6313 3.13101L9.99434 5.87001C9.88134 6.32001 9.54434 6.75101 8.94434 6.80701L4.55634 7.22001L4.66934 7.80101H8.85034C9.18834 7.80101 9.45034 8.06401 9.45034 8.40101C9.45034 8.68201 9.18734 9.00101 8.85034 9.00101H4.70634C4.08734 9.00101 3.58134 8.58901 3.48734 8.04501L2.47534 2.40001H1.95034C1.79154 2.39896 1.63953 2.33541 1.52724 2.22312C1.41494 2.11082 1.35139 1.95882 1.35034 1.80001C1.35034 1.48101 1.63134 1.20001 1.95034 1.20001H2.49434ZM9.30034 3.60001H3.90034L4.35034 6.03701L8.81234 5.60701L9.30034 3.60001Z" fill="#1A1C1F"/>
</g>
<defs>
<clipPath id="clip0_231_136">
<rect width="12" height="12" fill="white"/>
</clipPath>
</defs>
</svg>

<svg xmlns="http://www.w3.org/2000/svg" width="12" height="12" fill="none"><g clip-path="url(#a)"><path fill="#1A1C1F" fill-rule="evenodd" d="M4.5 10.8c.413 0 .75-.338.75-.75a.752.752 0 0 0-1.038-.696.74.74 0 0 0-.462.696c0 .412.32.75.75.75m4.05 0c.413 0 .75-.338.75-.75a.75.75 0 0 0-.75-.75.75.75 0 0 0-.75.75c0 .412.338.75.75.75M2.494 1.2c.562 0 1.012.394 1.143.956l.057.244h6.356c.394 0 .675.356.581.731L9.994 5.87c-.113.45-.45.881-1.05.937l-4.388.413.113.581H8.85c.338 0 .6.263.6.6 0 .281-.263.6-.6.6H4.706c-.619 0-1.125-.412-1.219-.956L2.475 2.4H1.95a.604.604 0 0 1-.6-.6c0-.319.281-.6.6-.6zM9.3 3.6H3.9l.45 2.437 4.462-.43z" clip-rule="evenodd"/></g><defs><clipPath id="a"><path fill="#fff" d="M0 0h12v12H0z"/></clipPath></defs></svg>
